icons/focus-center-24.svg

<svg width="24" height="24" viewBox="0 0 24 24" fill="none" xmlns="http://www.w3.org/2000/svg">
<path d="M2.75 15.25C3.16421 15.25 3.5 15.5858 3.5 16V20.25C3.5 20.3881 3.61193 20.5 3.75 20.5H8C8.41421 20.5 8.75 20.8358 8.75 21.25C8.75 21.6642 8.41421 22 8 22H3.75C2.7835 22 2 21.2165 2 20.25V16C2 15.5858 2.33579 15.25 2.75 15.25ZM21.25 15.25C21.6642 15.25 22 15.5858 22 16V20.25C22 21.2165 21.2165 22 20.25 22H16C15.5858 22 15.25 21.6642 15.25 21.25C15.25 20.8358 15.5858 20.5 16 20.5H20.25C20.3881 20.5 20.5 20.3881 20.5 20.25V16C20.5 15.5858 20.8358 15.25 21.25 15.25ZM8 2C8.41421 2 8.75 2.33579 8.75 2.75C8.75 3.16421 8.41421 3.5 8 3.5H3.75C3.61193 3.5 3.5 3.61193 3.5 3.75V8C3.5 8.41421 3.16421 8.75 2.75 8.75C2.33579 8.75 2 8.41421 2 8V3.75C2 2.7835 2.7835 2 3.75 2H8ZM20.25 2C21.2165 2 22 2.7835 22 3.75V8C22 8.41421 21.6642 8.75 21.25 8.75C20.8358 8.75 20.5 8.41421 20.5 8V3.75C20.5 3.61193 20.3881 3.5 20.25 3.5H16C15.5858 3.5 15.25 3.16421 15.25 2.75C15.25 2.33579 15.5858 2 16 2H20.25Z" fill="black"/>
<path d="M12 15C13.6569 15 15 13.6569 15 12C15 10.3431 13.6569 9 12 9C10.3431 9 9 10.3431 9 12C9 13.6569 10.3431 15 12 15Z" fill="black"/>
</svg>

<svg xmlns="http://www.w3.org/2000/svg" width="24" height="24" viewBox="0 0 24 24"><path d="M2.75 15.25a.75.75 0 0 1 .75.75v4.25c0 .138.112.25.25.25H8A.75.75 0 0 1 8 22H3.75A1.75 1.75 0 0 1 2 20.25V16a.75.75 0 0 1 .75-.75Zm18.5 0A.75.75 0 0 1 22 16v4.25A1.75 1.75 0 0 1 20.25 22H16a.75.75 0 0 1 0-1.5h4.25a.25.25 0 0 0 .25-.25V16a.75.75 0 0 1 .75-.75ZM8 2a.75.75 0 0 1 0 1.5H3.75a.25.25 0 0 0-.25.25V8A.75.75 0 0 1 2 8V3.75C2 2.784 2.784 2 3.75 2H8Zm12.25 0c.966 0 1.75.784 1.75 1.75V8a.75.75 0 0 1-1.5 0V3.75a.25.25 0 0 0-.25-.25H16A.75.75 0 0 1 16 2h4.25ZM12 15a3 3 0 1 0 0-6 3 3 0 0 0 0 6Z"/></svg>
